assets/features/global-acquiring/apple.svg

<svg width="27" height="31" viewBox="0 0 27 31" fill="none" xmlns="http://www.w3.org/2000/svg">
<path d="M20.4771 16.2155C20.4771 12.6493 23.4489 10.8663 23.5677 10.7474C21.9035 8.25113 19.2884 8.01338 18.3374 7.89451C16.0789 7.65677 14.058 9.20209 12.8693 9.20209C11.7995 9.20209 10.0164 7.89451 8.1145 8.01338C5.73708 8.01338 3.47854 9.43983 2.17096 11.5795C-0.325332 15.8589 1.5766 22.3968 4.07289 25.9629C5.2616 27.746 6.68805 29.6479 8.58999 29.529C10.373 29.4101 11.0863 28.3403 13.226 28.3403C15.3656 28.3403 16.0789 29.529 17.9808 29.529C19.8827 29.529 21.1903 27.746 22.379 26.0818C23.8055 24.061 24.2809 22.159 24.3998 22.0402C24.1621 21.9213 20.4771 20.4948 20.4771 16.2155ZM16.7921 5.51709C17.743 4.32839 18.4563 2.66419 18.2185 1C16.7921 1 15.009 1.95097 14.058 3.13968C13.1071 4.20951 12.275 5.87371 12.5127 7.5379C14.1769 7.65677 15.8411 6.7058 16.7921 5.51709Z" stroke="#9095A1" stroke-width="2"/>
</svg>

<svg xmlns="http://www.w3.org/2000/svg" width="27" height="31" fill="none" viewBox="0 0 27 31"><path stroke="#9095a1" stroke-width="2" d="M20.477 16.215c0-3.566 2.972-5.349 3.09-5.468-1.663-2.496-4.279-2.734-5.23-2.852-2.258-.238-4.279 1.307-5.468 1.307-1.07 0-2.853-1.307-4.754-1.189-2.378 0-4.636 1.427-5.944 3.566-2.496 4.28-.594 10.818 1.902 14.384 1.189 1.783 2.615 3.685 4.517 3.566 1.783-.119 2.496-1.189 4.636-1.189s2.853 1.189 4.755 1.189 3.21-1.783 4.398-3.447c1.426-2.021 1.902-3.923 2.02-4.042-.237-.119-3.922-1.545-3.922-5.824ZM16.792 5.517c.951-1.189 1.664-2.853 1.426-4.517-1.426 0-3.209.951-4.16 2.14-.95 1.07-1.783 2.734-1.545 4.398 1.664.119 3.328-.832 4.28-2.02Z"/></svg>
